X: 2
T: Haste To The Wedding
R: jig
M: 6/8
L: 1/8
K: Amaj
GF|EFE E z c|BAc BAF|EFE E z C|B,CB, B,CD|EFE E z c|BAc BAF|EFA BAB|cAA A:|cd|ece ece|fdf fdf|ece edc|BcB Bcd|eag fec|BAc BAF|EFA BAB|cAA A:|


Tune 582	Setting 21777

